www/assets/icons/history_edu.svg

<svg width="24" height="24" viewBox="0 0 24 24" xmlns="http://www.w3.org/2000/svg" fill='currentColor'><path d="M9.77997 4V5.38C8.94997 5.05 8.05997 4.88 7.16997 4.88C5.37997 4.88 3.58997 5.56 2.21997 6.93L5.54997 10.26H6.65997V11.37C7.51997 12.23 8.63997 12.68 9.76997 12.73V15H6.77997V18C6.77997 19.1 7.67997 20 8.77997 20H18.78C20.44 20 21.78 18.66 21.78 17V4H9.77997ZM8.66997 10.41V8.26H6.38997L5.34997 7.22C5.91997 7 6.53997 6.88 7.16997 6.88C8.50997 6.88 9.75997 7.4 10.71 8.34L12.12 9.75L11.92 9.95C11.41 10.46 10.73 10.75 9.99997 10.75C9.52997 10.75 9.06997 10.63 8.66997 10.41ZM19.78 17C19.78 17.55 19.33 18 18.78 18C18.23 18 17.78 17.55 17.78 17V15H11.78V12.41C12.35 12.18 12.88 11.84 13.34 11.38L13.54 11.18L16.37 14H17.78V12.59L11.78 6.62V6H19.78V17Z"/></svg>

<svg xmlns="http://www.w3.org/2000/svg" width="24" height="24" viewBox="0 0 24 24" fill='currentColor'><path d="M9.78 4v1.38c-.83-.33-1.72-.5-2.61-.5-1.79 0-3.58.68-4.95 2.05l3.33 3.33h1.11v1.11c.86.86 1.98 1.31 3.11 1.36V15H6.78v3c0 1.1.9 2 2 2h10c1.66 0 3-1.34 3-3V4zm-1.11 6.41V8.26H6.39L5.35 7.22a5.1 5.1 0 0 1 1.82-.34c1.34 0 2.59.52 3.54 1.46l1.41 1.41-.2.2a2.7 2.7 0 0 1-1.92.8c-.47 0-.93-.12-1.33-.34M19.78 17c0 .55-.45 1-1 1s-1-.45-1-1v-2h-6v-2.59c.57-.23 1.1-.57 1.56-1.03l.2-.2L16.37 14h1.41v-1.41l-6-5.97V6h8z"/></svg>
